X:1
T:Doulce memoire
T:Doulce memoire
T:Pierre Sandrin
C:Pierre Sandrin
%%score [ 1 [ 2 3 ] 4 ]
L:1/8
Q:1/4=76
M:2/2
K:C
V:1 treble nm="Superius" snm="S"
V:2 treble-8 nm="Tenor 1" snm="T 1"
V:3 treble-8 nm="Tenor 2" snm="T 2"
V:4 bass nm="Bass" snm="B"
V:1
 F8 | F2 E2 D4 | C4 z2 D2 | F3 G A2 F2 | E2 A4 G2 | A4 F4 | F2 F2 G4 | E4 F4 | E4 z4 | A4 A2 A2 | %10
w: Doul-|ce me- moi-|re- en|plai- sir con- som-|mé- * *|e, en-|plai- sir con|som- mé-|e,|O cie- cle'heu-|
w: La|fer- * me-|té de|noz _ _ deux,|tant- ay- mé-|e, de|noz deux, tant|ay- mé-|e,|qui à noz|
 A6 G2 | A2 c2 B2 A2- |[M:2/4]"^#" A2 G2 |[M:2/2] A8 :| F4 G2 G2 | F6 F2 | E2 C2 D2 D2 | C4 E4- | %18
w: reulx qui|cau- se tel sca-||voir,|or main- te-|nant a|per- du son pou-|voir, rom-|
w: maulx a|sceu si bien _|_ pour-|veoir,|||||
 E4 E2 F2 | G2 G2 G2 B2- | BA A4 G2 | A4 z2 A2 | A2 A2 A4 | F2 A2 G2 E2 | F2 F2 E4 | z2 E2 FG AB | %26
w: * pant le-|bout de ma seul-|* l'es- pe- ran-|ce, ser-|vant d'ex- em-|ple, à tous pi-|teulx a- voir,|fi- ni _ _ _|
w: ||||||||
 c2 d4 c2 |: d4 z2 D2 | E3 F G2 G2 | FE A4 G2 | A2 c3 B AG | FEDC B,A, D2- | D2 C2 D4 | %33
w: _ _ le|bien le|mal _ _ soub-|dain _ _ com-|men- * * * *||* * ce,|
w: |||||||
 z2 E2 FG AB |1 c2 d4 c2 :|2"^#" D2 C2 D4- || D8- | D8- | D8- | D8 |] %40
w: fi- ni _ _ _|_ _ le|* * ce.|_||||
w: |||||||
V:2
 d8 | c2 c2 A4- | A8 | z4 A4 | c3 d e2 e2 | c4 d4 | d2 d2 d2 e2- | ed c4 B2 | c4 e4 | f2 f2 f4 | %10
w: Doul-|ce me- moi-|re|en|plai- sir con- som-|mé- e,|en plai- sir con-|* som- mé- *|e, O|cie- cle'heu- reulx|
w: La|fer- me- té,|_|de|noz deux, tant ay-|mé- e,|de noz deux, tant|_ ay- mé- *|e, qui|à noz maulx|
 f4 e4- | e2 e2 e4 |[M:2/4] e4 |[M:2/2] c8 :| d4 d2 d2 | d3 c/B/ A2 B2 | B2 A2 A2 G2 | A8 | %18
w: qui cau-|* se tel|sca-|voir,|or main- te-|nant _ _ _ a|per- du son pou-|voir,|
w: a sceu|_ si bien|pour-|veoir,|||||
 G4 G2 d2 | B2 e2 d2 e2 | f2 f2 e4 | A4 z2 f2 | e2 f2 e2 e2 | f3 e d2 c2 | c2 B2 c4 | G4 A4 | %26
w: rom- pant le|bout de ma seul-|l'es- pe- ran-|ce, se-|vant d'ex- em- ple,-|à _ tous pi-|teulx a- voir,|fi- ni|
w: ||||||||
 a6 a2 |: f2 f2 f2 f2 | g3 f ed cB | A2 f2 e4 | c3 B AG FE | F4 D2 B2 | A4 A4- | A4 A4 |1 %34
w: _ le|bien, le mal soub-|dain _ _ _ _ _|_ com- men-||ce, com- men-|ce, fi-|* ni|
w: ||||||||
 a4- a2 a2 :|2 A4 F4 ||"^b""^b" z2 A2 B2 B2 |"^b" A2 A2 B4- | B4 A4- | A8 |] %40
w: _ _ le|(men)- ce,|le mal soub-|dain com- men-|* ce.|_|
w: ||||||
V:3
 A8 | A2 G2 F4 | E4 D4 | d6 d2 | c2 BA B2 B2 | A4 z2 A2 | A2 A2 BA GF | G4 F4 | G4 c4 | c2 c2 A4 | %10
w: Doul-|ce me- moi-|re en|plai- sir|con- som- * * mé-|e, en|plai- sir con- * * *|som- mé-|e, O|cie- cle'heu- reulx|
w: La|fer- * me-|té de|noz deux,|tant ay _ _ mé-|e, de|noz deux, tant _ _ _|ay- mé-|e, qui|à noz maulx|
 d4 c2 B2 | A4 G2 A2 |[M:2/4] B4 |[M:2/2] A8 :| A4 B2 B2 | A6 F2 | G2 A2 D2 D2 | E4 c4- | %18
w: qui cau- *|* se tel|sca-|voir,|or main- te-|nant a|per- du son pou-|voir, rom-|
w: a sceu si|bien _ _|pour-|veoir,|||||
 c4 c2 A2 | G2 B2 B2 B2 | c2 d2 B4 | A4 z2 A2 | c2 d4 c2 | d2 c2 B2 G2 | G2 F2 G4 | c8 | f4 e4 |: %27
w: * pant le|bout de ma seul-|l'es- pe- ran-|ce, ser-|vant d'ex- em-|ple, à tous pi-|teulx a- voir,|fi-|ni le|
w: |||||||||
 d2 A2 A2 A2 | c6 e2 | d3 c BA B2 | A4 c3 B | AG A2 G3 F | E4 D4 | c8 |1 f4 e4 :|2 E4 D4 || %36
w: bien, le mal soub-|dain com-|men- * * * *|||* ce,|fi-|ni le|(men)- ce,|
w: |||||||||
 z2 F2 G2 G2 | F2 F2 G4- | G2 FE ^F4- | F8 |] %40
w: le mal soub-|dain com- men-|* * * ce.|_|
w: ||||
V:4
 D,8 | F,2 C,2 D,4 | A,,4 z4 | D,4 F,3 G, | A,2 F,2 E,4 | A,,4 D,4 | D,2 D,2 G,F, E,D, | %7
w: Doul-|ce me- moi-|re|en plai- sir|con- som- mé|e, en|plai- sir con- * * *|
w: La|fer- * me-|té|de noz deux|tant- ay- mé-|e, de|noz deux tant _ _ _|
 C,2 E,2 D,4 | C,8 | F,4 F,2 F,2 | D,E, F,G, A,2 E,2 | C,2 A,,2 E,4 |[M:2/4] E,4 |[M:2/2] A,,8 :| %14
w: * som- mé-|e,|O cie- cle'heu-|reulx _ _ _ _ qui|cau- se tal|sca-|voir,|
w: _ ay- mé-|e,|qui à noz|maulx _ _ _ _ a|sceu si bien|pour-|veoir,|
 D,4 G,,2 G,,2 | D,6 D,2 | C,2 A,,2 B,,2 B,,2 | A,,8 | C,4 C,2 D,2 | E,2 E,2 G,2 G,2 | %20
w: or main- te-|nant a|per- du son pou-|voir,|rom- pant le|bout de ma seul-|
w: ||||||
 F,2 D,2 E,4 | A,,4 z2 D,2 |"^#" A,2 D,2 A,4 | D,2 F,2 G,2 C,2 | D,2 D,2 C,4- | C,4 F,4- | %26
w: l'es- pe- ran-|ce, ser-|vant d'ex- em-|ple, à tous pi-|teulx a- voir,|_ fi-|
w: ||||||
 F,2 E,D, A,2 A,2 |: D,8 | z2 C,2 C,2 C,2 | D,2 D,2 E,4 | A,,4 z2 F,,2 | F,,2 F,,2 G,,2 G,,2 | %32
w: * * * ni le|bien,|le mal soub-|dain com- men-|ce, le|mal soub- dain com-|
w: ||||||
 A,,4 D,4 | z4 F,4- |1 F,2 E,D, A,2 A,2 :|2 A,,4 D,4 || z2 D,2 G,,2 G,,2 | D,2 D,2 G,,4- | %38
w: men- ce,|fi-|* * * ni le|men- ce,|le mal soub-|dain com- men-|
w: ||||||
 G,,4 D,4- | D,8 |] %40
w: * ce.|_|
w: ||

